src/raw/bank/icon_24.svg

<svg xmlns="http://www.w3.org/2000/svg" width="24" height="24" fill="none" viewBox="0 0 24 24">
  <path stroke="#3F3F46" stroke-linecap="round" stroke-linejoin="round" stroke-width="1.5"
    d="m12 1 11 5H1l11-5ZM1 23h22" />
  <path stroke="#3F3F46" stroke-linejoin="round" stroke-width="1.5"
    d="M2 20V9h4v11H2ZM18 20V9h4v11h-4ZM10 20V9h4v11h-4Z" />
</svg>

<svg width="24" height="24" viewBox="0 0 24 24" fill="none" xmlns="http://www.w3.org/2000/svg">
<path d="M12 1L23 6H1L12 1Z" stroke="#71717A" stroke-width="1.5" stroke-linecap="round" stroke-linejoin="round"/>
<path d="M1 23H23" stroke="#71717A" stroke-width="1.5" stroke-linecap="round" stroke-linejoin="round"/>
<path d="M2 20V9H6V20H2Z" stroke="#71717A" stroke-width="1.5" stroke-linejoin="round"/>
<path d="M18 20V9H22V20H18Z" stroke="#71717A" stroke-width="1.5" stroke-linejoin="round"/>
<path d="M10 20V9H14V20H10Z" stroke="#71717A" stroke-width="1.5" stroke-linejoin="round"/>
</svg>
